X:1
T:THE PICNIC IN THE WILDWOOD
T:THE PICNIC IN THE WILDWOOD
T:SONG AND DANCE
T:Wm. J. Hardman
T:1881 by PA SEAFIELD
T:1881 by PA SEAFIELD
T:1881 by PA SEAFIELD
C:Wm. J. Hardman
Z:1881 by PA SEAFIELD
%%score 1 { 2 | 3 }
L:1/8
M:4/4
K:Bb
V:1 treble nm="Voice"
V:2 treble nm="Piano"
V:3 bass 
V:1
 z2 | z8 | z8 | z8 | z8 | z8 | z2 z3/2 z/ z2 D>E | F>d c>B D>F c>B | B2 A2 z2 A>B | %9
w: ||||||There's a|pic- nic o- ver yon- der in the|wild- wood, Where the|
 c>=B c>d e>A _B>c | d4 z2 D>E | F>d c>B D>F c>B | A2 G2 !fermata!e3 A | B>B B>B A>c e>A | %14
w: zeph- yrs from the val- ley gent- ly|play; Such a|happy lit- tle ba nd of mer- ry|ma- kers All re-|joi- cing o'er the plea- sures of a|
 B4 z2 B>A | G>d d>d G>d d>d | f2 B2 z2 B>A | G>^F G>A B>A B>c | d4 !fermata!e2 D>E | %19
w: day Come and|min- gle with the ma- ny hap- py|fa- ces You'll be|gree- ted with a wel- come and a|smile Ah! Such a|
 F>d c>B D>F c>B | B2 A2 z2 F>G | G>G e>c G>A f>A | B4 z4 |[M:3/4]"^CHORUS.\nGrazioso.\n" F4 D2 | %24
w: co zy lit- tle spot a mid the|clo ver Where the|bir- dies chirp in ec stac y the|while.|Mu- sic|
 F2 B4 | G4 E2 | G2 c4 | B4 A2 | E4 A2 | G4 F2 | D6 | (!>!F4 D2) | F2 !fermata!B4 | (!>!G4 E2) | %34
w: danc- ing|and such|pran- cing|Terp- si-|chore we'll|court so|gay|Joy- ous|ver- *|laugh- ing|
 G2 !fermata!c4 | c3 !^!A !^!^GA |!>(! d4 c2!>)! | (B6 | B6) ||[M:4/4]"^DANCE." z8 | z8 | z8 | z8 | %43
w: mer- ry|such a jol- ly|time to-|day.||||||
 z8 | z8 | z8 | z8 |] %47
w: ||||
V:2
 [EB]>[Fc] | [Ff]>[dd'] [cc']>[Bb] [Dd]>[Ff] [cc']>[Bb] | [Bb]2 [Aa]2 z2 [Aa]>[Bb] | %3
 [cc']>[Bb] [cc']>[dd'] [ee']2 [Aa]2 | [Bb]2 z2 !^![Bdfb]4 | z2 [DFB]2 z2 [DFB]2 | %6
 z2 [DFB]2 z2 [DFB]2 | z2 [DFB]2 z2 [DFB]2 | z2 [CEA]2 z2 [CEA]2 | z2 [CEA]2 z2 [CEA]2 | %10
 z2 [DFB]2 [DFB]2 [DFB]2 | z2 [DFB]2 z2 [DFB]2 | z2 [EGc]2 !fermata![EGc]4 | z2 [DFB]2 z2 [DFB]2 | %14
 z2 [DFB]2 [DFB]2 z2 | z2 [B,DG]2 z2 [B,DG]2 | z2 [DFB]2 [DFB]2 [DFB]2 | z2 [B,DG]2 z2 [C=EG]2 | %18
 [A,D^FA]4 !fermata![CEA]2 z2 | z2 [DFB]2 z2 [DFB]2 | z2 [C=EA]2 z2 [CEA]2 | z2 [EGc]2 z2 [EGc]2 | %22
 z2 [DFB]2 [DFB]4 |[M:3/4] z2 [DFB]2 [DFB]2 | z2 [DFB]2 [DFB]2 | z2 [DFB]2 [DFB]2 | %26
 z2 [DFB]2 [DFB]2 | z2 [CEA]2 [CEA]2 | z2 [DFB]2 [DFB]2 | z2 [DFB]2 [DFB]2 | z2 [DFB]2 [DFB]2 | %31
 z2 [DFB]2 [DFB]2 | z2 [EGc]2 [EGc]2 | z2 [DFB]2 [DFB]2 | [EGc]6 | z2 [CEA]2 [CEA]2 | %36
 z2 [CEA]2 [CEA]2 | ([DFB]6 | [DFB]6) ||[M:4/4] F2 z2 d2 z2 | (3(BcB) A2 (3(fgf) e2 | F2 z2 e2 z2 | %42
 (3(cdc) B2 (3(fgf) B2 | F2 z2 d2 z z/ f/ | f>e d>e G2 ^F2 | [Ff]2 [=E=e]2 [_E_e]2 [cc']2 | %46
 [Bb]4 z4 |] %47
V:3
 z2 | B,,2 [F,B,D]2 B,,2 [F,B,D]2 | C,2 [F,A,E]2 F,,2 [F,A,CE]2 | A,,2 [F,B,E]2 F,,2 [F,A,CE]2 | %4
 [B,DF]2 z2 !^![B,,,B,,]4 | [B,,B,]2 z2 [F,,F,]2 z2 | [B,,B,]2 z2 [F,,F,]2 z2 | %7
 [B,,B,]2 z2 B,,2 z2 | C,2 z2 F,,2 z2 | A,,2 z2 [F,,F,]2 z2 | [B,,B,]4 z4 | [B,,B,]2 z2 D,2 z2 | %12
 [E,,E,]2 z2 !fermata![C,,C,]4 | [F,,F,]2 z2 [F,,F,]2 z2 | [B,,B,]2 z2 [B,,B,]2 z2 | %15
 [G,,G,]2 z2 [G,,G,]2 z2 | [B,,B,]4 z4 | [G,,G,]2 z2 [E,,E,]2 z2 | D,4 !fermata!C,2 z2 | %19
 [B,,B,]2 z2 D,2 z2 | [F,,F,]2 z2 [F,,F,]2 z2 | [E,,E,]2 z2 [F,,F,]2 z2 | [B,,B,]2 z2 [B,,B,]4 | %23
[M:3/4] [B,,B,]2 z2 z2 | [B,,B,]2 z2 z2 | [E,,E,]2 z2 z2 | [E,,E,]2 z2 z2 | [F,,F,]2 z2 z2 | %28
 [F,,F,]2 z2 z2 | [B,,B,]2 z2 z2 | [F,,F,]2 z2 z2 | [B,,B,]2 z2 z2 | [B,,B,]2 z2 z2 | %33
 [E,,E,]2 z2 z2 | [E,,E,]6 | [F,,F,]2 [F,,F,]4 | [F,,F,]4 [F,,F,]2 | [B,,B,]2 F,2 D,2 | B,,6 || %39
[M:4/4] .B,,2 [F,B,D]2 .F,,2 [F,B,D]2 | C,2 .[F,A,CE]2 F,,2 .[F,A,CE]2 | %41
 A,,2 .[F,A,CE]2 F,,2 [F,A,CE]2 | B,,2 [F,B,D]2 F,,2 [F,B,D]2 | B,,2 [F,B,D]2 =B,,2 [F,_A,D]2 | %44
 C,2 [F,CE]2 [E,,E,]2 [G,CE]2 | F,2 [F,B,]2 F,,2 [F,A,E]2 | [B,,B,]2 (3(F,D,F,) [B,,,B,,]4 |] %47

